X: 13350
T: Flatworld
R: waltz
M: 3/4
K: Eminor
GB FB EB|c2 EF GE|c2 cB AG|F3 B ^AB|
GB FB E/F/G|c3 B AG|FE FA GF|1 E3:|2 E6||
|:EF G/F/E ed|c3 B AG|FG A/G/F dc|Bc Ac BG|
E>F GE cB|A3 G FE|1 F2 FA ^GA|F2 F/E/D GF:|2 F^E FA GF|E3||

